lib/preview/nrk-logo-preview-ostfold-with-bg.svg

<svg width="108" height="24" viewBox="0 0 108 24" fill="none" xmlns="http://www.w3.org/2000/svg">
<rect width="108" height="24" fill="#1767CE"/>
<path d="M6 17.9975V5.99856H10V17.9975H6ZM15.2438 7.90825L17.5081 17.9975H13.1992L10.4955 5.99856H12.9122C13.4663 5.99136 14.0041 6.18672 14.4245 6.54786C14.8456 6.89385 15.0849 7.37416 15.2438 7.90825ZM18 17.9975V5.99856H22V17.9975H18ZM25.0105 10.5616C24.5862 10.5657 24.1687 10.4547 23.8025 10.2404C23.4412 10.0316 23.1411 9.73142 22.9323 9.37006C22.7178 9.0038 22.6068 8.58623 22.611 8.16178C22.6061 7.73993 22.7172 7.32485 22.9323 6.96189C23.1433 6.60446 23.4431 6.30756 23.8025 6.09999C24.1689 5.88597 24.5862 5.77498 25.0105 5.77885C25.4322 5.77431 25.8471 5.8854 26.2102 6.09999C26.566 6.30938 26.8626 6.60603 27.072 6.96189C27.2868 7.32495 27.3979 7.73996 27.3933 8.16178C27.3973 8.58619 27.2863 9.00369 27.072 9.37006C26.8649 9.72984 26.5679 10.0297 26.2102 10.2404C25.8471 10.4554 25.4324 10.5666 25.0105 10.5616ZM28 17.9975V5.99856H32V17.9975H28ZM36.9737 12.5557C36.9848 12.5673 37.0693 12.7053 37.2272 12.9697C37.3851 13.2341 37.5906 13.5721 37.8439 13.9838C38.0974 14.3952 38.3649 14.8317 38.6463 15.2935C38.9278 15.7552 39.1926 16.1918 39.4408 16.6032C39.6881 17.0147 39.9697 17.4794 40.2857 17.9975H35.9598C35.6893 17.5581 35.4441 17.1609 35.2245 16.806C35.0048 16.4511 34.7713 16.068 34.5238 15.6568C34.2758 15.246 34.0306 14.846 33.7882 14.4569C33.5458 14.0679 33.3375 13.7271 33.1633 13.4345C32.9883 13.1418 32.8671 12.9446 32.7997 12.843C32.6325 12.5909 32.5336 12.2998 32.5127 11.998C32.5294 11.7084 32.6226 11.4284 32.7828 11.1866C32.8503 11.0739 32.9743 10.8739 33.1545 10.5866C33.3348 10.2993 33.546 9.95852 33.7882 9.56419C34.0304 9.16986 34.2756 8.76707 34.5238 8.35584C34.772 7.94461 35.0055 7.5587 35.2245 7.19817C35.4445 6.83802 35.6897 6.43805 35.9598 5.99828H40.2857L36.9396 11.457C36.8361 11.619 36.7777 11.8058 36.7706 11.998C36.7818 12.1998 36.8528 12.3938 36.9737 12.5557Z" fill="white"/>
<g clip-path="url(#clip0_5919_2841)">
<path d="M55.0553 5.44772L53.7494 6.86264C53.3562 6.53259 52.9114 6.25994 52.412 6.05042C51.6945 5.75194 50.8766 5.6027 49.9581 5.6027C49.0397 5.6027 48.1787 5.75768 47.444 6.06764C46.7093 6.37761 46.0865 6.81385 45.5756 7.37637C45.0648 7.93889 44.6745 8.61335 44.4047 9.39973C44.1349 10.1861 44 11.0557 44 12.0086C44 12.9614 44.132 13.8195 44.3961 14.583C44.6084 15.1943 44.9012 15.731 45.2657 16.1988L44 17.5879L44.8438 18.38L46.0894 17.0225C46.474 17.3267 46.9045 17.5793 47.3837 17.7687C48.1012 18.0499 48.9135 18.1906 49.8204 18.1906C50.7273 18.1906 51.5654 18.0413 52.3001 17.7429C53.0348 17.4444 53.6576 17.0196 54.1685 16.4686C54.6793 15.9175 55.0725 15.2574 55.348 14.4883C55.6236 13.7191 55.7613 12.8466 55.7613 11.8708C55.7613 10.895 55.6322 10.0742 55.3739 9.30502C55.1787 8.72528 54.9147 8.20867 54.5846 7.75234L55.9335 6.27429L55.0553 5.44772ZM46.3419 9.47722C46.6634 8.7425 47.1283 8.16562 47.7368 7.7466C48.3452 7.32758 49.0857 7.11807 49.9581 7.11807C50.8306 7.11807 51.508 7.3161 52.0934 7.71216C52.2714 7.8327 52.4321 7.97333 52.5871 8.12257L46.5113 14.8269C46.3563 14.5571 46.2271 14.2615 46.1267 13.9372C45.9487 13.3632 45.8598 12.7203 45.8598 12.0086C45.8598 11.0557 46.0205 10.2119 46.3419 9.47722ZM53.6346 13.8339C53.4567 14.4194 53.1955 14.9216 52.8511 15.3407C52.5067 15.7597 52.0848 16.0869 51.5854 16.3222C51.0861 16.5575 50.5092 16.6752 49.8548 16.6752C49.2005 16.6752 48.6609 16.5662 48.1673 16.348C47.8286 16.1988 47.5301 16.0008 47.2632 15.7654L53.3132 9.13856C53.3534 9.22179 53.4022 9.29641 53.4395 9.38538C53.7494 10.1029 53.9044 10.9381 53.9044 11.8909C53.9044 12.6027 53.8154 13.2513 53.6375 13.8368L53.6346 13.8339ZM63.8806 14.6863C63.9782 14.9331 64.0269 15.2287 64.0269 15.5731C64.0269 16.0323 63.9322 16.4284 63.7428 16.7613C63.5534 17.0942 63.2922 17.364 62.9593 17.5707C62.6264 17.7773 62.2361 17.9294 61.7883 18.027C61.3406 18.1246 60.8642 18.1734 60.3591 18.1734C60.141 18.1734 59.9257 18.1676 59.7133 18.1561C59.5009 18.1447 59.2828 18.116 59.059 18.07C58.8351 18.0241 58.5998 17.9696 58.3529 17.9064C58.1061 17.8433 57.8335 17.7601 57.535 17.6568L57.4661 16.1931C57.7301 16.2849 57.9913 16.3681 58.2496 16.4427C58.5079 16.5174 58.7605 16.5805 59.0073 16.6322C59.2541 16.6838 59.4895 16.724 59.7133 16.7527C59.9372 16.7814 60.141 16.7958 60.3246 16.7958C60.669 16.7958 60.9933 16.7613 61.2976 16.6924C61.6018 16.6236 61.8486 16.5059 62.038 16.3394C62.2275 16.173 62.3222 15.9462 62.3222 15.6592C62.3222 15.5215 62.2963 15.3952 62.2447 15.2804C62.193 15.1656 62.1184 15.0651 62.0208 14.979C61.9232 14.8929 61.8056 14.8126 61.6678 14.738C61.53 14.6633 61.3808 14.5973 61.2201 14.5399C61.1053 14.5055 60.9876 14.4682 60.8671 14.428C60.7465 14.3878 60.6231 14.3476 60.4968 14.3075C60.3706 14.2673 60.2414 14.2271 60.1094 14.1869C59.9774 14.1467 59.8425 14.1037 59.7047 14.0578C59.5669 14.0118 59.4349 13.9659 59.3086 13.92C59.079 13.8282 58.8638 13.7162 58.6629 13.5842C58.462 13.4522 58.2869 13.3001 58.1377 13.1279C57.9884 12.9557 57.8679 12.7462 57.7761 12.4993C57.6842 12.2525 57.6383 11.9684 57.6383 11.6469C57.6383 11.1992 57.7244 10.8118 57.8966 10.4846C58.0688 10.1574 58.3128 9.88763 58.6285 9.67525C58.9442 9.46287 59.3144 9.30215 59.7392 9.19309C60.1639 9.08403 60.6346 9.0295 61.1512 9.0295C61.3578 9.0295 61.5673 9.03811 61.7797 9.05533C61.9921 9.07255 62.2074 9.10412 62.4255 9.15004C62.6436 9.19596 62.8589 9.25336 63.0712 9.32224C63.2836 9.39112 63.4989 9.47148 63.717 9.56332L63.5964 10.9581C63.4472 10.8893 63.2807 10.8261 63.0971 10.7687C62.9134 10.7113 62.7326 10.6597 62.5546 10.6137C62.3767 10.5678 62.1988 10.5305 62.0208 10.5018C61.8429 10.4731 61.6793 10.453 61.53 10.4415C61.3808 10.4301 61.243 10.4243 61.1168 10.4243C60.8298 10.4243 60.5743 10.4473 60.3505 10.4932C60.1266 10.5391 59.9343 10.608 59.7736 10.6998C59.6129 10.7917 59.4923 10.9036 59.412 11.0356C59.3316 11.1677 59.2914 11.3255 59.2914 11.5092C59.2914 11.6699 59.3287 11.8134 59.4034 11.9397C59.478 12.066 59.5756 12.175 59.6961 12.2669C59.8166 12.3587 59.9515 12.4448 60.1008 12.5252C60.2385 12.5941 60.3906 12.6572 60.5571 12.7146C60.7236 12.772 60.8958 12.8265 61.0737 12.8782C61.2516 12.9298 61.4296 12.9872 61.6075 13.0504C61.7855 13.1135 61.9663 13.1738 62.15 13.2312C62.4025 13.323 62.6436 13.435 62.8732 13.567C63.1028 13.699 63.3037 13.8569 63.4759 14.0405C63.6481 14.2242 63.783 14.4395 63.8806 14.6863ZM70.8978 16.5633C70.9781 16.5461 71.047 16.526 71.1044 16.503L71.0011 17.9323C70.9092 17.9552 70.7973 17.9811 70.6653 18.0098C70.5333 18.0385 70.3926 18.0643 70.2434 18.0873C70.0942 18.1102 69.9306 18.1274 69.7526 18.1389C69.5747 18.1504 69.3939 18.1561 69.2102 18.1561C68.9691 18.1561 68.7223 18.1332 68.4697 18.0873C68.2172 18.0413 67.979 17.9667 67.7551 17.8634C67.5312 17.7601 67.3361 17.6166 67.1696 17.4329C67.0032 17.2492 66.8683 17.0167 66.7649 16.7355C66.6616 16.4542 66.61 16.1184 66.61 15.7281V10.5965H65.0946L65.284 9.21892H66.61V7.11807L68.3664 6.49815V9.21892H70.9839L70.7944 10.5965H68.3664V15.3665C68.3664 15.6535 68.4238 15.8974 68.5386 16.0983C68.6534 16.2992 68.817 16.4514 69.0294 16.5547C69.2418 16.658 69.4972 16.7097 69.7957 16.7097C69.876 16.7097 69.9621 16.7097 70.054 16.701C70.1458 16.6953 70.2405 16.6838 70.3381 16.6666C70.4357 16.6494 70.5333 16.6322 70.6308 16.6149C70.7284 16.5977 70.8174 16.5805 70.8978 16.5633ZM77.9408 5.27552L78.0097 6.70479C77.9293 6.67035 77.8346 6.64165 77.7255 6.61869C77.6165 6.59573 77.5017 6.57277 77.3811 6.54981C77.2606 6.52685 77.1372 6.50963 77.0109 6.49815C76.8846 6.48667 76.7526 6.48093 76.6148 6.48093C76.3967 6.48093 76.1987 6.50676 76.0207 6.55842C75.8428 6.61008 75.6964 6.69044 75.5816 6.7995C75.4668 6.90856 75.3778 7.04632 75.3147 7.21278C75.2516 7.37924 75.22 7.57153 75.22 7.78965V9.21892H77.6308V10.5621H75.22V18.0012H73.4636V10.5621H72.172V9.21892H73.4636V7.97907C73.4636 7.47395 73.5353 7.03771 73.6788 6.67035C73.8223 6.30299 74.0232 5.99589 74.2815 5.74907C74.5398 5.50225 74.8412 5.32144 75.1856 5.20664C75.53 5.09184 75.8973 5.03444 76.2876 5.03444C76.4943 5.03444 76.6894 5.04305 76.8731 5.06027C77.0568 5.07749 77.2376 5.10332 77.4156 5.13776C77.5935 5.1722 77.7686 5.21812 77.9408 5.27552ZM85.2163 9.58054C84.5562 9.21318 83.7784 9.0295 82.8829 9.0295C81.9875 9.0295 81.204 9.21892 80.5324 9.59776C79.8608 9.9766 79.3385 10.5104 78.9654 11.1992C78.5923 11.888 78.4057 12.7031 78.4057 13.6445C78.4057 14.5858 78.5808 15.3981 78.9309 16.0811C79.2811 16.7642 79.7833 17.2837 80.4377 17.6395C81.092 17.9954 81.8497 18.1734 82.7107 18.1734C83.5717 18.1734 84.3983 17.9839 85.0871 17.6051C85.7759 17.2263 86.3126 16.6867 86.6972 15.9864C87.0818 15.2861 87.2741 14.4596 87.2741 13.5067C87.2741 12.5539 87.0961 11.8105 86.7402 11.139C86.3843 10.4674 85.8764 9.9479 85.2163 9.58054ZM85.1129 15.3493C84.8891 15.8314 84.5762 16.1902 84.1744 16.4255C83.7726 16.6609 83.3134 16.7785 82.7968 16.7785C82.2802 16.7785 81.8325 16.658 81.4537 16.4169C81.0748 16.1758 80.7763 15.8142 80.5582 15.332C80.3401 14.8499 80.231 14.2529 80.231 13.5412C80.231 12.8294 80.3401 12.2611 80.5582 11.8019C80.7763 11.3427 81.0834 10.9983 81.4795 10.7687C81.8756 10.5391 82.3491 10.4243 82.9002 10.4243C83.3364 10.4243 83.7124 10.4961 84.0281 10.6396C84.3438 10.7831 84.6078 10.9926 84.8202 11.2681C85.0326 11.5436 85.1904 11.8737 85.2937 12.2583C85.3971 12.6428 85.4487 13.0705 85.4487 13.5412C85.4487 14.2644 85.3368 14.8671 85.1129 15.3493ZM92.3023 16.7097L92.509 16.6752L92.3368 18.0356C92.2564 18.0586 92.1559 18.0815 92.0354 18.1045C91.9149 18.1274 91.7915 18.1447 91.6652 18.1561C91.5389 18.1676 91.4069 18.1734 91.2691 18.1734C90.9936 18.1734 90.7382 18.1418 90.5028 18.0786C90.2675 18.0155 90.0637 17.9093 89.8915 17.7601C89.7193 17.6108 89.5873 17.4185 89.4954 17.1832C89.4036 16.9479 89.3577 16.6637 89.3577 16.3308V5.2583L91.1141 5V15.5559C91.1141 15.7625 91.1285 15.9405 91.1572 16.0897C91.1859 16.239 91.2347 16.3624 91.3036 16.46C91.3724 16.5575 91.4585 16.6293 91.5619 16.6752C91.6652 16.7211 91.7915 16.7441 91.9407 16.7441C92.0096 16.7441 92.0698 16.7441 92.1215 16.7355C92.1732 16.7297 92.2334 16.7211 92.3023 16.7097ZM100.206 5.2583V9.44852C100.189 9.44278 100.172 9.43417 100.155 9.42556C99.8562 9.31076 99.5261 9.21605 99.1645 9.14143C98.8029 9.06681 98.404 9.0295 97.9677 9.0295C97.1986 9.0295 96.4839 9.21892 95.8238 9.59776C95.1637 9.9766 94.6328 10.5248 94.231 11.2423C93.8292 11.9598 93.6283 12.8351 93.6283 13.8683C93.6283 14.7523 93.7804 15.5157 94.0846 16.1586C94.3888 16.8015 94.8251 17.298 95.3933 17.6481C95.9616 17.9983 96.6418 18.1734 97.4339 18.1734C97.8931 18.1734 98.3265 18.116 98.734 18.0012C99.1416 17.8864 99.5405 17.7084 99.9308 17.4673C100.06 17.387 100.189 17.298 100.318 17.2062L100.534 18.0012H101.963V5.01722L100.206 5.2583ZM99.2851 16.5288C98.8316 16.6953 98.4212 16.7785 98.0538 16.7785C97.5028 16.7785 97.0321 16.6666 96.6418 16.4427C96.2515 16.2189 95.953 15.8745 95.7463 15.4095C95.5397 14.9446 95.4364 14.362 95.4364 13.6617C95.4364 12.9614 95.5512 12.3558 95.7808 11.8794C96.0104 11.403 96.3404 11.0414 96.7709 10.7946C97.2014 10.5477 97.7152 10.4243 98.3121 10.4243C98.5991 10.4243 98.8746 10.4444 99.1387 10.4846C99.4027 10.5248 99.6696 10.5879 99.9394 10.674C100.023 10.6998 100.117 10.7372 100.206 10.7687V16.0754C99.882 16.2677 99.5749 16.4227 99.2851 16.5288Z" fill="#D4EEFC"/>
</g>
<defs>
<clipPath id="clip0_5919_2841">
<rect width="57.9628" height="13.38" fill="white" transform="translate(44 5)"/>
</clipPath>
</defs>
</svg>

<svg xmlns="http://www.w3.org/2000/svg" viewBox="0 0 108 24"><path fill="#1767CE" d="M0 0h108v24H0z"/><path fill="#fff" d="M6 17.997V6h4v11.998H6Zm9.244-10.089 2.264 10.09H13.2l-2.704-12h2.417a2.276 2.276 0 0 1 1.512.55c.422.346.66.826.82 1.36ZM18 17.998v-12h4v12h-4Zm7.01-7.436a2.381 2.381 0 0 1-2.078-1.192 2.345 2.345 0 0 1-.321-1.208 2.301 2.301 0 0 1 .321-1.2A2.41 2.41 0 0 1 26.21 6.1c.356.21.653.506.862.862.215.363.326.778.321 1.2a2.35 2.35 0 0 1-.321 1.208 2.4 2.4 0 0 1-.862.87 2.3 2.3 0 0 1-1.2.322ZM28 17.997V6h4v11.998h-4Zm8.974-5.441c.01.011.095.15.253.414s.364.602.617 1.014a309.436 309.436 0 0 1 1.597 2.62c.247.41.529.875.845 1.393H35.96c-.27-.439-.516-.836-.736-1.191-.22-.355-.453-.738-.7-1.15-.248-.41-.493-.81-.736-1.2a60.12 60.12 0 0 1-.625-1.021 18.04 18.04 0 0 0-.363-.592 1.747 1.747 0 0 1-.287-.845c.016-.29.11-.57.27-.811.067-.113.191-.313.371-.6a182.106 182.106 0 0 0 1.37-2.23l.7-1.159.736-1.2h4.326l-3.346 5.459a1.079 1.079 0 0 0-.17.541c.012.202.083.396.204.558Z"/><g clip-path="url(#a)"><path fill="#D4EEFC" d="M55.055 5.448 53.75 6.863a5.19 5.19 0 0 0-1.337-.813c-.718-.298-1.535-.447-2.454-.447-.918 0-1.78.155-2.514.465a5.236 5.236 0 0 0-1.868 1.308A5.737 5.737 0 0 0 44.405 9.4c-.27.786-.405 1.656-.405 2.609 0 .952.132 1.81.396 2.574a5.59 5.59 0 0 0 .87 1.616L44 17.588l.844.792 1.245-1.357c.385.304.816.556 1.295.746.717.28 1.53.422 2.436.422.907 0 1.745-.15 2.48-.448a5.156 5.156 0 0 0 1.869-1.274 5.701 5.701 0 0 0 1.179-1.98c.276-.77.413-1.642.413-2.618s-.129-1.797-.387-2.566a5.77 5.77 0 0 0-.79-1.553l1.35-1.478-.879-.826Zm-8.713 4.03c.321-.736.786-1.312 1.395-1.731.608-.42 1.349-.629 2.221-.629.873 0 1.55.198 2.135.594.178.12.34.261.494.41l-6.076 6.705a4.376 4.376 0 0 1-.384-.89 6.498 6.498 0 0 1-.267-1.928c0-.953.16-1.797.482-2.532Zm7.293 4.356a4.32 4.32 0 0 1-.784 1.507 3.606 3.606 0 0 1-1.266.981c-.499.236-1.076.353-1.73.353-.654 0-1.194-.109-1.688-.327a3.484 3.484 0 0 1-.904-.583l6.05-6.626c.04.083.09.157.127.246.31.718.464 1.553.464 2.506 0 .712-.089 1.36-.267 1.946l-.002-.003Zm10.246.852c.097.247.146.543.146.887 0 .46-.095.855-.284 1.188-.19.333-.45.603-.784.81a3.696 3.696 0 0 1-1.17.456 6.699 6.699 0 0 1-1.43.146c-.218 0-.433-.005-.646-.017a4.428 4.428 0 0 1-.654-.086c-.224-.046-.46-.1-.706-.164a10.41 10.41 0 0 1-.818-.25l-.069-1.463c.264.092.525.175.784.25.258.074.51.137.757.19.247.05.483.091.706.12.224.028.428.043.612.043.344 0 .668-.035.973-.104a1.65 1.65 0 0 0 .74-.353c.19-.166.284-.393.284-.68a.88.88 0 0 0-.301-.68 1.895 1.895 0 0 0-.353-.241 3.188 3.188 0 0 0-.448-.198 12.007 12.007 0 0 1-.353-.112 27.19 27.19 0 0 0-.758-.241 16.398 16.398 0 0 1-.8-.267 3.62 3.62 0 0 1-.646-.336 2.523 2.523 0 0 1-.525-.456 2.026 2.026 0 0 1-.362-.629 2.434 2.434 0 0 1-.138-.852c0-.448.086-.835.259-1.162.172-.328.416-.597.732-.81a3.557 3.557 0 0 1 1.11-.482c.425-.109.896-.163 1.412-.163.207 0 .416.008.629.025.212.018.427.05.645.095.219.046.434.103.646.172.213.07.428.15.646.241l-.12 1.395a4.156 4.156 0 0 0-.5-.19 11.294 11.294 0 0 0-.542-.154 5.886 5.886 0 0 0-1.438-.19c-.287 0-.543.023-.767.07a1.946 1.946 0 0 0-.576.206.979.979 0 0 0-.362.336.893.893 0 0 0-.12.473c0 .16.037.304.111.43.075.127.173.236.293.328.12.092.256.178.405.258.138.07.29.132.456.19.167.057.339.111.517.163a9.5 9.5 0 0 1 .534.172c.178.063.358.124.542.181.253.092.494.204.723.336.23.132.43.29.603.473.172.184.307.4.405.646Zm7.017 1.877c.08-.017.149-.037.206-.06l-.103 1.43a11.67 11.67 0 0 1-.336.077 5.65 5.65 0 0 1-.913.13 8.408 8.408 0 0 1-.542.016c-.24 0-.488-.023-.74-.069a2.968 2.968 0 0 1-.715-.224 1.8 1.8 0 0 1-.585-.43 2.11 2.11 0 0 1-.405-.698 2.927 2.927 0 0 1-.155-1.007v-5.131h-1.515l.189-1.378h1.326v-2.1l1.756-.62v2.72h2.618l-.19 1.378h-2.428v4.77c0 .286.058.53.173.731.114.201.278.353.49.457.213.103.468.155.767.155.08 0 .166 0 .258-.009.092-.006.186-.017.284-.034l.293-.052c.097-.017.186-.034.267-.052ZM77.94 5.276l.069 1.429a1.52 1.52 0 0 0-.285-.086 18.064 18.064 0 0 0-.344-.07 3.828 3.828 0 0 0-.766-.068c-.218 0-.416.026-.594.077a1.05 1.05 0 0 0-.44.242c-.114.109-.203.246-.266.413a1.622 1.622 0 0 0-.095.577v1.429h2.41v1.343h-2.41v7.44h-1.756v-7.44h-1.292V9.22h1.292v-1.24c0-.505.071-.941.215-1.309.143-.367.344-.674.602-.92.259-.248.56-.429.905-.543a3.463 3.463 0 0 1 1.102-.173 5.61 5.61 0 0 1 1.128.103c.177.035.353.081.525.139Zm7.275 4.305c-.66-.368-1.438-.551-2.333-.551-.895 0-1.679.189-2.35.568a3.97 3.97 0 0 0-1.568 1.601c-.373.689-.56 1.504-.56 2.446 0 .94.176 1.753.526 2.436.35.683.852 1.203 1.507 1.559.654.355 1.412.533 2.273.533.86 0 1.687-.19 2.376-.568a4.01 4.01 0 0 0 1.61-1.619c.385-.7.577-1.526.577-2.48 0-.952-.178-1.696-.534-2.367a3.762 3.762 0 0 0-1.524-1.558Zm-.103 5.768c-.224.482-.537.841-.939 1.076a2.674 2.674 0 0 1-1.377.354c-.517 0-.965-.121-1.343-.362-.38-.241-.678-.603-.896-1.085-.218-.482-.327-1.08-.327-1.79 0-.713.11-1.28.327-1.74.218-.46.525-.804.921-1.033.397-.23.87-.345 1.421-.345.436 0 .812.072 1.128.216.316.143.58.353.792.628.213.276.37.606.474.99.103.385.155.813.155 1.283 0 .723-.112 1.326-.336 1.808Zm7.19 1.36.206-.034-.172 1.36a3.822 3.822 0 0 1-1.068.138c-.275 0-.53-.031-.766-.094a1.52 1.52 0 0 1-.612-.319 1.441 1.441 0 0 1-.396-.577 2.349 2.349 0 0 1-.137-.852V5.258L91.114 5v10.556c0 .207.014.385.043.534.029.149.078.272.147.37.068.098.154.17.258.215.103.046.23.07.379.07.069 0 .129 0 .18-.01.052-.005.112-.014.181-.025Zm7.903-11.45v4.19c-.017-.006-.034-.015-.051-.023a5.932 5.932 0 0 0-2.187-.396c-.77 0-1.484.189-2.144.568-.66.379-1.191.927-1.593 1.644-.402.718-.603 1.593-.603 2.626 0 .884.152 1.648.457 2.29.304.643.74 1.14 1.308 1.49.569.35 1.249.525 2.04.525.46 0 .893-.057 1.301-.172a4.698 4.698 0 0 0 1.197-.534c.129-.08.258-.169.387-.26l.216.794h1.429V5.017l-1.757.241Zm-.92 11.27c-.454.166-.865.25-1.232.25-.551 0-1.022-.112-1.412-.336-.39-.224-.689-.569-.896-1.034-.206-.464-.31-1.047-.31-1.747 0-.7.115-1.306.345-1.783.23-.476.56-.838.99-1.084.43-.247.944-.37 1.541-.37a5.215 5.215 0 0 1 1.627.25c.084.025.178.062.267.094v5.306a5.641 5.641 0 0 1-.92.454Z"/></g><defs><clipPath id="a"><path fill="#fff" d="M44 5h57.963v13.38H44z"/></clipPath></defs></svg>
